img/02-04.svg

<svg width="150" height="110" viewBox="0 0 150 110" fill="none" xmlns="http://www.w3.org/2000/svg">
<g clip-path="url(#clip0)">
<path d="M70.9329 32.5108L29.4185 52.7798L94.24 95.6533L148.441 69.2118L97.1482 35.3051C89.6882 30.3421 77.9293 29.0909 70.9329 32.5108Z" fill="#D5EDF4"/>
<path d="M70.9748 32.5943C67.5188 34.3042 64.0628 35.9724 60.6067 37.7241C57.1507 39.434 53.7368 41.1856 50.2808 42.9373L39.997 48.1505L34.8551 50.7779L29.6711 53.3637L29.7554 52.2376C35.1923 55.7826 40.5871 59.3276 45.9818 62.956C51.3766 66.5427 56.6871 70.2128 62.0397 73.8412L70.0897 79.3047C72.7871 81.098 75.4424 82.9331 78.1398 84.7264L82.1858 87.3956L86.2319 90.0647L94.3662 95.4031H94.0712L121.045 81.8904L134.532 75.1758L148.061 68.5029L147.977 69.8375C141.781 65.792 135.628 61.7048 129.432 57.6177L120.202 51.4452C117.125 49.4017 114.049 47.3164 111.014 45.2311L101.868 38.9752L97.3165 35.8473C95.7992 34.8047 94.1976 33.9288 92.5118 33.1781C90.8259 32.4691 89.0557 31.927 87.2856 31.4682C85.4733 31.0511 83.661 30.8009 81.8065 30.7175C79.9521 30.5924 78.0976 30.7175 76.2853 30.9677C74.473 31.3014 72.6607 31.7601 70.9748 32.5943ZM70.9327 32.4274C72.6185 31.5933 74.4309 31.0928 76.2432 30.8009C78.0976 30.509 79.9521 30.3839 81.8065 30.4673C83.661 30.5507 85.5154 30.7592 87.3699 31.0928C89.1822 31.4682 90.9945 31.9687 92.7647 32.636C94.4927 33.3033 96.1785 34.1791 97.7801 35.18L102.458 38.1411L111.815 44.105C114.934 46.1069 118.011 48.1088 121.129 50.1524L130.402 56.2414C136.597 60.3286 142.751 64.374 148.904 68.5029L150.042 69.2536L148.82 69.8375L135.206 76.4687L121.593 82.9748L94.3662 95.9035L94.1976 95.9869L94.0712 95.9035L85.979 90.4818L81.933 87.7709L77.8869 85.1018C75.1895 83.3084 72.45 81.5568 69.7526 79.8051L61.5761 74.5502C56.1392 71.0469 50.6601 67.5436 45.2654 64.0404C39.8284 60.4954 34.4337 56.9087 29.081 53.322L28.1538 52.6964L29.1653 52.1959L34.3915 49.7353L39.5756 47.2747L50.0279 42.3951C53.5261 40.7686 57.0243 39.1421 60.4803 37.4738C63.9785 35.8056 67.4345 34.0957 70.9327 32.4274Z" fill="black"/>
<path d="M71.3542 56.1996L55.5071 63.9569L53.5684 62.664L69.4155 54.9067L71.3542 56.1996Z" fill="black"/>
<path d="M69.1204 59.4944L57.4037 65.2081L56.645 64.7076L68.3618 58.9939L69.1204 59.4944Z" fill="black"/>
<path d="M72.8713 59.536L59.0472 66.2923L58.2886 65.7918L72.0705 59.0355L72.8713 59.536Z" fill="black"/>
<path d="M69.0784 63.2896L60.6913 67.3768L59.9326 66.8763L68.3198 62.7474L69.0784 63.2896Z" fill="black"/>
<path d="M93.7505 48.166L87 56.9097C93.2352 58.6786 100.501 58.2743 105.499 55.8483C112.456 52.462 112.868 46.2455 106.427 42L93.7505 48.166Z" fill="#387487"/>
<path d="M93.7489 47L101 39.1909C99.1617 38.6298 97.1191 38.3025 95.0766 38.1154C93.034 37.9284 90.9404 37.9751 89 38.2089L93.7489 47Z" fill="#FFE455"/>
<path d="M92 47.5915L81.3092 40C81.2612 40.0493 81.1653 40.0493 81.1174 40.0986C74.6454 43.3521 74.2618 49.4648 80.2545 53.5563C80.4942 53.7042 80.6859 53.8521 80.9256 54L92 47.5915Z" fill="#ED7339"/>
<path d="M92 41.5915L81.3092 34C81.2612 34.0493 81.1653 34.0493 81.1174 34.0986C74.6454 37.3521 74.2618 43.4648 80.2545 47.5563C80.4942 47.7042 80.6859 47.8521 80.9256 48L92 41.5915Z" fill="#FFA87E"/>
<path d="M114.976 60.4536L99.1287 68.1692L97.1899 66.8763L113.037 59.1608L114.976 60.4536Z" fill="black"/>
<path d="M111.974 63.3222L112.547 63.7318L101.033 69.3055L100.468 68.9329L111.974 63.3222Z" stroke="black" stroke-width="0.2"/>
<path d="M115.685 63.4044L116.249 63.7769L102.676 70.3898L102.112 70.0173L115.685 63.4044Z" stroke="black" stroke-width="0.2"/>
<path d="M111.934 67.1163L112.499 67.4893L104.321 71.5154L103.712 71.103L111.934 67.1163Z" stroke="black" stroke-width="0.2"/>
<path d="M82.8183 80.0135L87.9181 83.3917L86.1901 84.2258L81.0903 80.8477L82.8183 80.0135Z" fill="black"/>
<path d="M88.4238 71.589L98.4969 78.2202L96.7689 79.096L86.6958 72.4231L88.4238 71.589Z" fill="black"/>
<path d="M81.4692 76.0933L90.5308 82.0989L88.8027 82.9747L79.7412 76.9691L81.4692 76.0933Z" fill="black"/>
<path d="M85.5156 75.8013L93.1442 80.8477L91.4161 81.6818L83.7876 76.6354L85.5156 75.8013Z" fill="black"/>
<path d="M93.7489 41L101 32.3232C99.1617 31.6998 97.1191 31.3361 95.0766 31.1282C93.034 30.9204 90.9404 30.9724 89 31.2322L93.7489 41Z" fill="#FFF7CB"/>
<path d="M83.8721 71.5474L95.8839 79.5132L94.1559 80.3473L82.144 72.3815L83.8721 71.5474Z" fill="black"/>
<path d="M86.8223 67.5436L101.068 76.9691L99.3398 77.8032L85.0942 68.3777L86.8223 67.5436Z" fill="black"/>
<path d="M93.7505 41.166L87 49.9097C93.2352 51.6786 100.501 51.2743 105.499 48.8483C112.456 45.462 112.868 39.2455 106.427 35L93.7505 41.166Z" fill="#71BDD5"/>
<path d="M41.4303 48.1504L1.30664 71.0886L68.8256 109.666L121.172 79.7634L67.7298 49.2348C59.9748 44.814 48.1737 44.3135 41.4303 48.1504Z" fill="#D5EDF4"/>
<path d="M41.4723 48.2338C38.1427 50.1523 34.771 52.0708 31.4836 54.0309C28.154 55.9494 24.8665 57.9513 21.5369 59.9114L11.5903 65.792L6.61703 68.7531L1.64372 71.6725V70.5464C7.29137 73.716 12.939 76.9274 18.5445 80.1804C24.15 83.4335 29.7134 86.7282 35.3189 90.023L43.7061 94.9443C46.4878 96.5708 49.3116 98.1973 52.1354 99.8238L56.3501 102.243L60.5648 104.62L69.0362 109.416H68.6991L94.7036 94.1936L107.727 86.6448L120.792 79.0961V80.4724C114.344 76.844 107.938 73.1739 101.489 69.4621L91.8797 63.9152C88.6766 62.0384 85.4734 60.2034 82.2703 58.3266L72.703 52.6547L67.9404 49.8187C66.381 48.9011 64.7373 48.1087 62.9671 47.4831C61.2391 46.8993 59.4268 46.4405 57.6145 46.1486C55.8022 45.8566 53.9477 45.7315 52.0933 45.7315C50.2388 45.7315 48.3844 45.94 46.6142 46.3571C44.8441 46.7324 43.0739 47.3163 41.4723 48.2338ZM41.388 48.1087C42.9896 47.1912 44.8019 46.5656 46.6142 46.1486C48.4265 45.7315 50.281 45.4813 52.1354 45.4396C53.9899 45.3979 55.8443 45.4813 57.6988 45.7315C59.5532 45.9817 61.3656 46.3988 63.1779 46.941C64.948 47.4831 66.676 48.2756 68.3198 49.1514L73.2088 51.8205L82.9446 57.1589C86.1899 58.9522 89.3931 60.7873 92.6384 62.5806L102.29 68.0441C108.738 71.7142 115.145 75.3843 121.551 79.0961L122.731 79.7634L121.551 80.4307L108.443 87.8543L95.2936 95.2362L68.952 109.917L68.7834 110L68.6569 109.917L60.2276 105.079L56.0129 102.66L51.7983 100.241C48.9744 98.6144 46.1506 97.0712 43.3268 95.4864L34.8131 90.7737C29.1655 87.604 23.4757 84.5178 17.828 81.3065C12.1804 78.1369 6.57488 74.9255 0.969373 71.6725L0 71.0886L0.969373 70.5464L6.02697 67.7521L11.0846 64.9578L21.1998 59.411C24.5715 57.5342 27.9432 55.6992 31.315 53.8224C34.6867 51.9039 38.0163 49.9855 41.388 48.1087Z" fill="black"/>
<path d="M41.4302 40.3931L31.3993 46.1068L21.4105 51.9039L1.39086 63.4564V63.1228L9.82019 67.9189L18.2495 72.7568L35.1082 82.4325L51.9669 92.1082C57.5724 95.3613 63.22 98.5309 68.8677 101.742H68.7412L94.8722 86.7282L121.003 71.7558V72.1729L101.7 61.1626L92.0483 55.6574L82.4389 50.1106L72.8295 44.5637C69.5842 42.7704 66.5075 40.6434 63.0093 39.4756C61.2391 38.8917 59.469 38.4747 57.6145 38.1827C55.8022 37.8908 53.9478 37.8074 52.0933 37.8074C50.2389 37.8491 48.3844 38.0576 46.5721 38.4747C44.8019 38.85 43.0318 39.4756 41.4302 40.3931ZM41.4302 40.3514C43.0318 39.4339 44.8019 38.8083 46.6142 38.3913C48.4265 37.9742 50.281 37.7657 52.1355 37.724C53.9899 37.6823 55.8444 37.8074 57.6988 38.0576C59.5533 38.3496 61.3656 38.7249 63.1357 39.3088C64.9059 39.8927 66.5918 40.6434 68.2355 41.5609L73.0823 44.3135L82.7339 49.7769L92.3434 55.1987L101.995 60.7455L121.256 71.7558L121.593 71.9644L121.256 72.1729L95.0829 87.1035L68.8677 101.992L68.8255 102.034L68.7834 101.992C63.1779 98.7811 57.5724 95.5281 51.9247 92.3168L35.0239 82.7244L18.1231 73.1321L9.65161 68.336L1.22227 63.4981L0.927246 63.3313L1.22227 63.1645L21.3262 51.7788L31.3993 46.1068L41.4302 40.3514Z" fill="black"/>
<path d="M43.4111 71.7975L28.1119 80.5557L26.0889 79.388L41.3881 70.6298L43.4111 71.7975Z" fill="black"/>
<path d="M40.5873 74.8739L41.1868 75.2174L30.0928 81.5666L29.4932 81.2231L40.5873 74.8739Z" stroke="black" stroke-width="0.2"/>
<path d="M44.2975 74.7063L44.9336 75.0524L31.779 82.5259L31.1796 82.1825L44.2975 74.7063Z" stroke="black" stroke-width="0.2"/>
<path d="M40.7957 78.6287L41.4038 79.0088L33.5064 83.5267L32.9062 83.1828L40.7957 78.6287Z" stroke="black" stroke-width="0.2"/>
<path d="M60.022 65.0228L54 74.3523C60.2244 75.7363 67.3091 74.8649 72.066 72.0968C78.6447 68.2522 78.6447 61.8958 72.066 58L60.022 65.0228Z" fill="#FFE455"/>
<path d="M59.339 64L66 55.7149C64.1186 55.2912 62.0847 55.0558 60.0508 55.0087C58.0169 54.9617 55.9322 55.1029 54 55.4795L59.339 64Z" fill="#ED7339"/>
<path d="M59.339 58L66 49.7149C64.1186 49.2912 62.0847 49.0558 60.0508 49.0087C58.0169 48.9617 55.9322 49.1029 54 49.4795L59.339 58Z" fill="#FFA87E"/>
<path d="M58 64.8521L46.1584 58C46.1076 58.0493 46.006 58.0986 45.9552 58.0986C39.3483 61.7958 39.3483 67.9084 45.9552 71.6056C46.2093 71.7535 46.4634 71.8521 46.7175 72L58 64.8521Z" fill="#387487"/>
<path d="M87.2017 73.1739L71.9024 81.9321L69.8794 80.7643L85.1786 72.0479L87.2017 73.1739Z" fill="black"/>
<path d="M84.3778 76.2502L84.9774 76.5937L73.8833 82.9429L73.2838 82.5994L84.3778 76.2502Z" stroke="black" stroke-width="0.2"/>
<path d="M88.129 76.0833L88.7285 76.4268L75.5694 83.9438L74.9699 83.6004L88.129 76.0833Z" stroke="black" stroke-width="0.2"/>
<path d="M84.5887 80.0454L85.1883 80.3889L77.2974 84.903L76.6979 84.5596L84.5887 80.0454Z" stroke="black" stroke-width="0.2"/>
<path d="M56.4344 94.8191L61.7449 97.8219L60.059 98.7811L54.7485 95.7783L56.4344 94.8191Z" fill="#FFE455"/>
<path d="M61.45 86.0192L71.9445 92.0248L70.2587 92.984L59.7642 86.9784L61.45 86.0192Z" fill="#387487"/>
<path d="M54.7908 90.9822L64.2317 96.4039L62.588 97.3632L53.105 91.9414L54.7908 90.9822Z" fill="#387487"/>
<path d="M58.8367 90.3983L66.7603 94.9442L65.1166 95.9035L57.1509 91.3575L58.8367 90.3983Z" fill="#ED7339"/>
<path d="M56.8981 86.3112L69.4157 93.4428L67.7719 94.4021L55.2544 87.2704L56.8981 86.3112Z" fill="#FFE455"/>
<path d="M59.5955 82.0989L74.4312 90.5651L72.7453 91.5244L57.9097 83.0581L59.5955 82.0989Z" fill="#ED7339"/>
<path d="M60.022 59.0228L54 68.3523C60.2244 69.7363 67.3091 68.8649 72.066 66.0968C78.6447 62.2522 78.6447 55.8958 72.066 52L60.022 59.0228Z" fill="#FFF7CB"/>
<path d="M58 57.8521L46.1584 51C46.1076 51.0493 46.006 51.0986 45.9552 51.0986C39.3483 54.7958 39.3483 60.9084 45.9552 64.6056C46.2093 64.7535 46.4634 64.8521 46.7175 65L58 57.8521Z" fill="#71BDD5"/>
<path d="M106.673 80.2221L117.084 75.0506L127.494 69.9208L137.904 64.791L148.356 59.7029L148.314 60.0366C138.958 53.7807 129.643 47.4831 120.244 41.3524L106.125 32.0937L99.0869 27.4644L97.3167 26.2966C96.7267 25.9213 96.1366 25.5459 95.5466 25.2123C94.3243 24.545 93.0599 23.9611 91.7534 23.5024C89.1403 22.5431 86.3586 21.9175 83.5769 21.6673C80.7952 21.4171 77.9714 21.5005 75.2319 22.0427C74.5575 22.2095 73.8832 22.3346 73.2088 22.5848C72.8716 22.7099 72.5345 22.7934 72.2394 22.9185L71.2701 23.3355C70.0057 23.9194 68.7413 24.545 67.4769 25.1706L59.8905 28.8824L44.6755 36.1809C39.6179 38.6415 34.5182 41.0605 29.4606 43.4794V43.396L32.5373 45.4396L32.453 45.4813L29.3763 43.4794L29.292 43.4377L29.3763 43.396C34.3917 40.8936 39.4493 38.3913 44.5069 35.889L59.6376 28.4236L67.224 24.7118C68.4884 24.0862 69.7528 23.4606 71.0172 22.8768L71.9866 22.4597C72.3237 22.2929 72.6609 22.2095 72.9981 22.1261C73.6724 21.8758 74.3889 21.7507 75.0633 21.5839C77.845 21 80.7531 20.9583 83.5769 21.2085C86.4429 21.4171 89.2246 22.0844 91.8798 23.0853C93.2285 23.5441 94.4929 24.1696 95.7573 24.8786C96.3473 25.254 96.9795 25.6293 97.5696 26.0047L99.3398 27.1725L106.336 31.8435L120.371 41.1856C129.728 47.4414 139.168 53.5305 148.567 59.7029L148.862 59.9114L148.525 60.0783L138.073 65.1664L127.62 70.2128L117.168 75.2591L106.673 80.2638V80.2221Z" fill="black"/>
</g>
<defs>
<clipPath id="clip0">
<rect width="150" height="110" fill="white"/>
</clipPath>
</defs>
</svg>

<svg xmlns="http://www.w3.org/2000/svg" width="150" height="110" fill="none"  xmlns:v="https://vecta.io/nano"><g clip-path="url(#A)"><path d="M70.933 32.511L29.419 52.78 94.24 95.653l54.201-26.442-51.293-33.907c-7.46-4.963-19.219-6.214-26.215-2.794z" fill="#d5edf4"/><g fill="#000"><path d="M70.975 32.594l-10.368 5.13-10.326 5.213-10.284 5.213-5.142 2.627-5.184 2.586.084-1.126 16.226 10.718 24.109 16.35 8.05 5.422 8.092 5.338 8.134 5.338h-.295l40.461-20.227 13.529-6.673-.084 1.335-18.545-12.22-9.23-6.172-9.188-6.214-9.146-6.256-4.551-3.128c-1.517-1.043-3.119-1.918-4.805-2.669-1.686-.709-3.456-1.251-5.226-1.71a30.44 30.44 0 0 0-5.479-.751c-1.854-.125-3.709 0-5.521.25-1.812.334-3.625.792-5.311 1.627zm-.042-.167c1.686-.834 3.498-1.335 5.311-1.626 1.854-.292 3.709-.417 5.563-.334s3.709.292 5.563.625c1.812.375 3.625.876 5.395 1.543 1.728.667 3.414 1.543 5.015 2.544l4.678 2.961 9.357 5.964 9.314 6.047 9.273 6.089 19.64 13.012-1.222.584-13.614 6.631-13.613 6.506-27.395 13.012-.126-.083-12.138-8.133-4.046-2.669-8.134-5.297L45.265 64.04 29.081 53.322l-.927-.626 1.011-.5 5.226-2.461 5.184-2.461 10.452-4.88 10.452-4.921 10.452-5.046zm.421 23.773l-15.847 7.757-1.939-1.293 15.847-7.757 1.939 1.293zm-2.234 3.294l-11.717 5.714-.759-.501 11.717-5.714.759.501zm3.751.042l-13.824 6.756-.759-.501 13.782-6.756.801.501zm-3.793 3.754l-8.387 4.087-.759-.501 8.387-4.129.759.542z"/></g><path d="M93.751 48.166L87 56.91c6.235 1.769 13.501 1.365 18.499-1.061 6.957-3.386 7.369-9.603.928-13.848l-12.677 6.166z" fill="#387487"/><path d="M93.749 47L101 39.191c-1.838-.561-3.881-.888-5.923-1.075s-4.136-.14-6.077.093L93.749 47z" fill="#ffe455"/><path d="M92 47.592L81.309 40c-.048.049-.144.049-.192.099-6.472 3.254-6.856 9.366-.863 13.458.24.148.431.296.671.444L92 47.592z" fill="#ed7339"/><path d="M92 41.592L81.309 34c-.048.049-.144.049-.192.099-6.472 3.254-6.856 9.366-.863 13.458.24.148.431.296.671.444L92 41.592z" fill="#ffa87e"/><path d="M114.976 60.454l-15.847 7.716-1.939-1.293 15.847-7.715 1.939 1.293z" fill="#000"/><g stroke="#000" stroke-width=".2"><path d="M111.974 63.322l.573.41-11.514 5.574-.565-.373 11.506-5.611zm3.711.082l.564.372-13.573 6.613-.564-.372 13.573-6.613zm-3.751 3.712l.565.373-8.178 4.026-.609-.412 8.222-3.987z"/></g><g fill="#000"><path d="M82.818 80.014l5.1 3.378-1.728.834-5.1-3.378 1.728-.834zm5.606-8.425l10.073 6.631-1.728.876-10.073-6.673 1.728-.834zm-6.955 4.504l9.062 6.006-1.728.876-9.061-6.006 1.728-.876zm4.047-.292l7.629 5.046-1.728.834-7.629-5.046 1.728-.834z"/></g><path d="M93.749 41L101 32.323c-1.838-.623-3.881-.987-5.923-1.195a26.32 26.32 0 0 0-6.077.104L93.749 41z" fill="#fff7cb"/><g fill="#000"><path d="M83.872 71.547l12.012 7.966-1.728.834-12.012-7.966 1.728-.834zm2.95-4.003l14.246 9.426-1.728.834-14.246-9.425 1.728-.834z"/></g><path d="M93.751 41.166L87 49.91c6.235 1.769 13.501 1.365 18.499-1.061 6.957-3.386 7.369-9.603.928-13.848l-12.677 6.166z" fill="#71bdd5"/><path d="M41.43 48.15L1.307 71.089l67.519 38.577 52.346-29.903L67.73 49.235c-7.755-4.421-19.556-4.921-26.299-1.084z" fill="#d5edf4"/><g fill="#000"><path d="M41.472 48.234l-9.989 5.797L11.59 65.792l-4.973 2.961-4.973 2.919v-1.126l16.901 9.634 25.162 14.764 8.429 4.88 4.215 2.419 4.215 2.377 8.471 4.796h-.337l26.004-15.222 26.088-15.097v1.376l-19.303-11.01-9.609-5.547-9.609-5.589-14.33-8.508c-1.559-.918-3.203-1.71-4.973-2.336-1.728-.584-3.54-1.043-5.353-1.334s-3.667-.417-5.521-.417a23.99 23.99 0 0 0-5.479.626c-1.77.375-3.54.959-5.142 1.877zm-.084-.125c1.602-.917 3.414-1.543 5.226-1.96s3.667-.667 5.521-.709 3.709.042 5.563.292 3.667.667 5.479 1.21c1.77.542 3.498 1.335 5.142 2.21l4.889 2.669 9.736 5.338 9.694 5.422 9.652 5.464 20.441 11.719-1.18.667-13.108 7.424-13.149 7.382L68.783 110l-.127-.083-16.859-9.676-8.471-4.755-8.514-4.713-16.985-9.467L.969 71.673 0 71.089l.969-.542 10.115-5.589L21.2 59.411l10.115-5.589 10.073-5.714z"/><path d="M41.43 40.393l-10.031 5.714-9.989 5.797-20.02 11.553v-.334l8.429 4.796 42.147 24.189 16.901 9.634h-.126l26.131-15.014 26.131-14.972v.417L92.048 55.657 72.83 44.564c-3.245-1.793-6.322-3.92-9.82-5.088-1.77-.584-3.54-1.001-5.395-1.293-1.812-.292-3.667-.375-5.521-.375-1.854.042-3.709.25-5.521.667-1.77.375-3.54 1.001-5.142 1.918zm0-.042c1.602-.917 3.372-1.543 5.184-1.96s3.667-.626 5.521-.667 3.709.083 5.563.334c1.855.292 3.667.667 5.437 1.251s3.456 1.335 5.1 2.252l14.498 8.216 9.609 5.422 9.652 5.547 19.261 11.01.337.209-.337.209-26.173 14.931-26.257 14.931-.042-.042-16.859-9.675-33.802-19.185-8.471-4.796-8.724-5.005 20.399-11.553 10.073-5.672 10.031-5.755z"/><path d="M43.411 71.798l-15.299 8.758-2.023-1.168 15.299-8.758 2.023 1.168z"/></g><g stroke="#000" stroke-width=".2"><path d="M40.587 74.874l.599.343-11.094 6.349-.6-.343 11.094-6.349zm3.711-.168l.636.346-13.155 7.473-.599-.343 13.118-7.476zm-3.502 3.923l.608.38-7.897 4.518-.6-.344 7.889-4.554z"/></g><path d="M60.022 65.023L54 74.352c6.224 1.384 13.309.513 18.066-2.255 6.579-3.845 6.579-10.201 0-14.097l-12.044 7.023z" fill="#ffe455"/><path d="M59.339 64L66 55.715c-1.881-.424-3.915-.659-5.949-.706s-4.119.094-6.051.471L59.339 64z" fill="#ed7339"/><path d="M59.339 58L66 49.715c-1.881-.424-3.915-.659-5.949-.706s-4.119.094-6.051.471L59.339 58z" fill="#ffa87e"/><path d="M58 64.852L46.158 58a.39.39 0 0 1-.203.099c-6.607 3.697-6.607 9.81 0 13.507.254.148.508.246.762.394L58 64.852z" fill="#387487"/><path d="M87.202 73.174l-15.299 8.758-2.023-1.168 15.299-8.716 2.023 1.126z" fill="#000"/><g stroke="#000" stroke-width=".2"><path d="M84.378 76.25l.6.343-11.094 6.349-.6-.343 11.094-6.349zm3.751-.167l.599.344-13.159 7.517-.6-.343 13.159-7.517zm-3.54 3.962l.6.344-7.891 4.514-.599-.343 7.891-4.514z"/></g><path d="M56.434 94.819l5.311 3.003-1.686.959-5.31-3.003 1.686-.959z" fill="#ffe455"/><g fill="#387487"><path d="M61.45 86.019l10.495 6.006-1.686.959-10.495-6.006 1.686-.959zm-6.659 4.963l9.441 5.422-1.644.959-9.483-5.422 1.686-.959z"/></g><path d="M58.837 90.398l7.924 4.546-1.644.959-7.966-4.546 1.686-.959z" fill="#ed7339"/><path d="M56.898 86.311l12.518 7.132-1.644.959-12.518-7.132 1.644-.959z" fill="#ffe455"/><path d="M59.596 82.099l14.836 8.466-1.686.959-14.836-8.466 1.686-.959z" fill="#ed7339"/><path d="M60.022 59.023L54 68.352c6.224 1.384 13.309.513 18.066-2.255 6.579-3.845 6.579-10.201 0-14.097l-12.044 7.023z" fill="#fff7cb"/><path d="M58 57.852L46.158 51a.39.39 0 0 1-.203.099c-6.607 3.697-6.607 9.81 0 13.507.254.148.508.246.762.394L58 57.852z" fill="#71bdd5"/><path d="M106.673 80.222l10.411-5.171 20.82-10.26 10.452-5.088-.042.334-28.07-18.684-22.927-15.056-1.77-1.084c-1.222-.667-2.487-1.251-3.793-1.71-2.613-.959-5.395-1.585-8.177-1.835s-5.605-.167-8.345.375l-2.023.542-.969.334-.969.417-3.793 1.835-7.586 3.712-30.43 14.597v-.083l3.077 2.044-.084.042-3.077-2.002-.084-.042.084-.042 15.131-7.507 15.131-7.465 7.586-3.712 3.793-1.835.969-.417c.337-.167.674-.25 1.011-.334.674-.25 1.391-.375 2.065-.542 2.782-.584 5.69-.626 8.514-.375 2.866.209 5.648.876 8.303 1.877 1.349.459 2.613 1.084 3.877 1.793l1.812 1.126 1.77 1.168 6.996 4.671 14.035 9.342 28.491 18.726-.337.167-10.452 5.088-20.905 10.093-10.495 5.005v-.042z" fill="#000"/></g><defs><clipPath id="A"><path fill="#fff" d="M0 0h150v110H0z"/></clipPath></defs></svg>
